X:1302
T:G Gracenotes
O:Kevin Fraser
Z:Kevin Fraser
B: http://svenax.net/site/canntaireachd/2/
Q:1/4=120
K:HP
M:4/4
L:1/1
R:March
V:gstem=up stem=down
%%MIDI gracedivider 4
%%MIDI gchord
%%MIDI beatstring
T:Nether Lorn Canntaireachd
|| {g}G {g}A {g}B {g}c | {g}d {g}e {g}f {g}f| {g}e {g}d {g}c {g}B | {g}A {g}G ||
w: G A B c | d e f f| e d c B | A G ||
w: him  hin  ho   ho  |  ha  he   che   che | he  ha   ho   ho  | hin him ||
w: him hin hoe haw | hah hey shay shay | hey hah haw hoe hin him
V:2 clef=treble
z|x|x|x
V:3 clef=none stem=none
L:1/1
%%stafflines 8
%%staffscale 2.
[|{[EGBdac'g']} [EGBdac'e'g'] |
{[EGBdac'g']}  [GBdac'e'g'] |
{[GBdac'g']}  [Bdac'e'g'] |
{[GBdac'g']}  [Edac'e'g'] |
{[GBdac'g']}  [Eac'e'g'] |
{[GBdc'g']}  [GBdc'e'g'] |
{[GBdc'g']}  [GBde'g'] |
{[GBdg']}  [GBde'g'] |
{[GBdg']}  [GBdc'e'g'] |
{[GBdc'g']}  [Eac'e'g'] |
{[Eac'g']}  [Edac'e'g'] |
{[Edac'g']}  [Bdac'e'g'] |
{[Bdac'g']}  [GBdac'e'g'] |
{[GBdac'g']} [EGBdac'e'g'] |]
T: Alternate Canntaireachd 
|| {g}G {g}A {g}B {g}c | {g}d {g}e {g}f {g}f| {g}e {g}d {g}c {g}B | {g}A {g}G ||
w: him  hin  hio   ho  |  ha  che/hi(cadence)   he   he | che/hi(cadence)  ha   ho   hio  | hin him ||


